X:1
T:Il vostro di partir
T:Madalena Casulana
T:Source : Secondo libro de madrigali a quattro voci---Venetia---G.Scotto---1570. Editor : André Vierendeels (23/08/17).
T:Il vostro di partir
T:©
T:©
T:©
T:©
C:Madalena Casulana
Z:©
%%score [ 1 2 3 4 ]
L:1/8
Q:1/4=120
M:2/2
K:F
V:1 treble nm="Alto" snm="A"
V:2 treble-8 nm="Tenor 1" snm="T 1"
V:3 treble-8 nm="Tenor 2" snm="T 2"
V:4 bass nm="Bass" snm="B"
V:1
 G8 | F6 E2 | D2 B2 A4 | ^F4 G2 B2 | G4 ^F2 F2 | G4 A4 | B8 | A2 A,2 C4 | A,4 D4 | D4 z2 D2 | %10
w: Il|vo- stro|di par- tir|don- na mi|die- de No-|io- sa|vi-|ta, No- io-|sa vi-|ta, e|
 G4 G4 | A6 G2 | A4 A2 E2 | F4 F4- | F2 F2 F4 | F8 | D2 F2 F2 D2 | B4 A4 | z2 A4 G2 | G2 G4 A2 | %20
w: con si|dub- bia|spe- ne, di|voi ca-|* ro mio|be-|ne, ch'al- tri s'in|pe- ra|e di|cio fia ca-|
 D4 D2 D2- | D2 E2 F3 F | G2 A4 G2 | B2 A2 GF F2- | FE/D/ E2 F4 | z8 | z2 D2 G2 A2 | B4 A4- | %28
w: gio- ne, le|_ vo- str'al- me|virt' _ al|mon- do so- * *|* * * * le,||al mon- do|so- le,|
 A2 A2 F2 c2 | A4 z2 c2 | A2 d4 c2 | B2 A3 G/F/ G2 | A4 z4 | z2 F3 F c2 | B4 A4 | F8 | E4 E4 | %37
w: _ e rio ti-|mor, e|rio ti- mor|mi spin- * * *|ge|ond' i miei|lu- mi,|sem-|bran d'a-|
 F8- | F4 E4 | D8- | D4 G,4 | B,4 A,4 | G,2 A,2 B,2 C2 | D8 | D8 | D8 |] %46
w: ma-|* re|la-|* cri-|me duo|fu- * * *||mi.|_|
V:2
 d8 | d4 A4 | A2 d2 ^c4 | d4 d2 d2- | d2 c2 d4 | z4 e4 | f4 d2 g2- | g2 ^f2 z4 | d6 G2- | %9
w: Il|vo- stro|di par- tir|don- na mi|_ die- de|No-|io- sa vi-|* ta,|No- io-|
 G2 ^F2 G4 | D2 d2 d2 e2 | f6 d2 |"^-natural" ^c4 c2 c2 | d4 d4- | d2 d2 d4 | c8 | f2 d2 d2 B2 | %17
w: * sa vi-|ta, e con si|dub- bia|spe- ne, di|voi ca-|* ro mio|be-|ne, ch'al- tri s'in|
 B3 c d2 c2 | z2 f4 e2 | e2 d4 d2 | B4 A4 | z2 B2 c2 d2- | dd f2 e2 e2 | f3 e d2 c2 | c4 A4 | %25
w: pe- * * ra|e di|cio fia ca-|gio- ne,|le vostr' al-|* me vir- tut' al|mon- * * do|so- le,|
 z2 G2 A2 c2 | F2 f2 d2 c2 | B2 G2 c4 | F2 f2 d2 g2 | f4 z4 | z2 f2 d2 g2 | f2 d2 d3 e | %32
w: le vostr' al-|me vir- tut' al|mon- do so-|le, e rio ti-|mor,|e rio ti-|mor mi spin- *|
"^-natural" f2 e2 z2 f2- |"^-natural" ff d2 c4 | f8 | z4 F4 | c8- | c4 c4 | d8- | d4 c4 | B4 B4 | %41
w: * ge ond'|_ i miei lu-|mi,|sem|bran|_ d'a-|ma-|* re|la- cri-|
 G4 A4 | d6 c2 | B2 A2 B4 | A8 | A8 |] %46
w: me duo|fu- *||mi.|_|
V:3
 B8 | A6 E2 | ^F2 G2 E4 | z2 A2 B2 B2- | B2 G2 A4 | z2 =B2 ^c4 | d4 G4 | d2 d2 G4 | A4 B4 | %9
w: Il|vo- stro|di par- tir|don- na mi|_ die- de|No- io-|sa vi-|ta, No- io-|sa vi-|
 A4 z2 =B2 | =B6 c2 | c2 d2 D4 | E4 z2 A2 | A4 B4- | B2 B2 F2 B2- | B2 AG A4 | B2 B2 B2 F2- | %17
w: ta, e|con si|dub- bia spe-|ne, di|voi ca-|* ro mio be-||ne, ch'al- tri s'in|
 F2 E2 F2 f2- | f2 c2 c4 | z2 B4 A2- | A2 G4 ^F2 | z2 G2 A2 B2- | BB A2 c2 c2 | d3 c B2 A2 | %24
w: _ pe- ra e|_ di cio|fia ca-|* gio- ne,|le vostr' al-|* me vir- tut' al|mon- * * do|
 G4 F2 D2 | A2 c3 c A2 | B2 A2 GF F2- | FE/D/ E2 F2 c2 | A2 d4 c2- | c2 d2 B2 AA | c2 B2 A2 G2 | %31
w: so- le, le|vostr' al- me vir-|tit' al mon- do so-|* * * * le, e|rio ti- mor|_ mi spin- ge, e|rio ti- mor mi|
 de f3 e d2- | dc/=B/ ^c2 d2 A2- | A2 B4 A2 |"^-natural" d4 c4 | B4 A4- | A2 G2 A4- | A4 G4 | F8 | %39
w: spin- * * * *|* * * * ge ond'|_ i miei|lu- mi|sem- bran|_ d'a- ma-|* re|la-|
 G8 | G4 d4 | d6 c2 | B2 A2 G4- | G2 D2 G4- | G4 ^F2 E2 | ^F8 |] %46
w: cri-|me duo|fu- *||||mi.|
V:4
 G,,8 | D,6 ^C,2 | D,2 G,,2 A,,4 | D,4 G,,2 G,2 | _E,4 D,4 | z8 | z8 | D,4 E,4 | ^F,4 G,4 | %9
w: Il|vo- stro|di par- tir|don- na mi|die- de|||No- io-|sa vi-|
 D,4 z2 G,,2 | G,,4 G,2 C,2 | F,2 D,3 C, B,,2 | A,,4 z2 A,,2 | D,4 B,,4- | B,,2 B,,2 B,,4 | F,8 | %16
w: ta, e|con si dub-|bia spe- * *|ne, di|voi ca-|* ro mio|be-|
 B,,2 B,,2 B,,2 B,,2 | G,,4 F,,4 | z2 F,4 C,2 | C,2 G,4 ^F,2 | G,4 D,4 | z8 | z8 | z8 | %24
w: ne, ch'al- tri s'in|pe- ra|e di|cio fia ca-|gio- ne,||||
 C,4 D,2 F,2- | F,F, E,2 F,2 F,2 | D,3 C, B,,2 A,,2 | G,,4 F,,4 | z8 | F,2 D,2 G,2 F,2- | %30
w: le vostr' al-|* me vir- tut' al|mon- * * do|so- le,||e rio ti- mor,|
 F,2 D,2 F,2 E,2 | D,2 D,2 B,4 | A,4 z2 D,2- | D,2 D,2 F,4 | B,,4 F,4 | D,8 | C,8 | A,,8 | B,,8- | %39
w: _ e rio ti-|mor mi spin-|ge, ond'|_ i miei|lu- mi,|sem-|bran|d'a-|ma-|
 B,,4 A,,4 | G,,4 G,,4 | G,,4 ^F,,4 | G,,8- | G,,8 | D,8- | D,8 |] %46
w: * re|la- cri-|me duo|fu-||mi.|_|

